assets/images/icons/src/sticky-note.svg

<?xml version="1.0" encoding="utf-8"?>
<!-- Generated by IcoMoon.io -->
<!DOCTYPE svg PUBLIC "-//W3C//DTD SVG 1.1//EN" "http://www.w3.org/Graphics/SVG/1.1/DTD/svg11.dtd">
<svg version="1.1" xmlns="http://www.w3.org/2000/svg" xmlns:xlink="http://www.w3.org/1999/xlink" width="12" height="14" viewBox="0 0 12 14">
<path fill="#444444" d="M8 9.75v3.25h-7.25q-0.312 0-0.531-0.219t-0.219-0.531v-10.5q0-0.312 0.219-0.531t0.531-0.219h10.5q0.312 0 0.531 0.219t0.219 0.531v7.25h-3.25q-0.312 0-0.531 0.219t-0.219 0.531zM9 10h2.977q-0.117 0.641-0.508 1.031l-1.438 1.438q-0.391 0.391-1.031 0.508v-2.977z"></path>
</svg>

<svg xmlns="http://www.w3.org/2000/svg" width="12" height="14" viewBox="0 0 12 14"><path fill="#444" d="M8 9.75V13H.75q-.312 0-.531-.219T0 12.25V1.75q0-.312.219-.531T.75 1h10.5q.312 0 .531.219T12 1.75V9H8.75q-.312 0-.531.219T8 9.75zM9 10h2.977q-.117.641-.508 1.031l-1.438 1.438q-.391.391-1.031.508V10z"/></svg>
